X: 43296
T: Wooden Whale
R: reel
M: 4/4
K: Bminor
|:f2 ef Bffe|faef afec|e2 ce Aece|(3fgaec fece|
f2 ef Bffe|faef afef|fecB A2 ce|(3fgaec fBBA:|
|:BBBb afef|Bffe faec|e2 ce Aece|(3fgaec fecA|
BBBb afef|Bffe faef|afec A2 ce|(3fgaec fBBA:|

